app/ui/static/images/icons/solid/calculator.svg

<svg width="20" height="20" viewBox="0 0 20 20" fill="none" xmlns="http://www.w3.org/2000/svg">
<path fill-rule="evenodd" clip-rule="evenodd" d="M10 1C8.28365 1 6.5916 1.10551 4.93005 1.31046C3.80579 1.44913 3 2.41374 3 3.51661V16.75C3 17.9926 4.00736 19 5.25 19H14.75C15.9926 19 17 17.9926 17 16.75V3.51661C17 2.41374 16.1942 1.44913 15.07 1.31046C13.4084 1.10551 11.7163 1 10 1ZM5.99023 8.75C5.99023 8.33579 6.32602 8 6.74023 8H6.75023C7.16445 8 7.50023 8.33579 7.50023 8.75V8.76C7.50023 9.17421 7.16445 9.51 6.75023 9.51H6.74023C6.32602 9.51 5.99023 9.17421 5.99023 8.76V8.75ZM6.74023 10.1666C6.32602 10.1666 5.99023 10.5024 5.99023 10.9166V10.9266C5.99023 11.3408 6.32602 11.6766 6.74023 11.6766H6.75023C7.16445 11.6766 7.50023 11.3408 7.50023 10.9266V10.9166C7.50023 10.5024 7.16445 10.1666 6.75023 10.1666H6.74023ZM5.99023 13.0833C5.99023 12.669 6.32602 12.3333 6.74023 12.3333H6.75023C7.16445 12.3333 7.50023 12.669 7.50023 13.0833V13.0933C7.50023 13.5075 7.16445 13.8433 6.75023 13.8433H6.74023C6.32602 13.8433 5.99023 13.5075 5.99023 13.0933V13.0833ZM6.74023 14.4999C6.32602 14.4999 5.99023 14.8357 5.99023 15.2499V15.2599C5.99023 15.6741 6.32602 16.0099 6.74023 16.0099H6.75023C7.16445 16.0099 7.50023 15.6741 7.50023 15.2599V15.2499C7.50023 14.8357 7.16445 14.4999 6.75023 14.4999H6.74023ZM8.15691 8.75C8.15691 8.33579 8.49269 8 8.90691 8H8.91691C9.33112 8 9.66691 8.33579 9.66691 8.75V8.76C9.66691 9.17421 9.33112 9.51 8.91691 9.51H8.90691C8.49269 9.51 8.15691 9.17421 8.15691 8.76V8.75ZM8.90691 10.1666C8.49269 10.1666 8.15691 10.5024 8.15691 10.9166V10.9266C8.15691 11.3408 8.49269 11.6766 8.90691 11.6766H8.91691C9.33112 11.6766 9.66691 11.3408 9.66691 10.9266V10.9166C9.66691 10.5024 9.33112 10.1666 8.91691 10.1666H8.90691ZM8.15691 13.0833C8.15691 12.669 8.49269 12.3333 8.90691 12.3333H8.91691C9.33112 12.3333 9.66691 12.669 9.66691 13.0833V13.0933C9.66691 13.5075 9.33112 13.8433 8.91691 13.8433H8.90691C8.49269 13.8433 8.15691 13.5075 8.15691 13.0933V13.0833ZM8.90691 14.4999C8.49269 14.4999 8.15691 14.8357 8.15691 15.2499V15.2599C8.15691 15.6741 8.49269 16.0099 8.90691 16.0099H8.91691C9.33112 16.0099 9.66691 15.6741 9.66691 15.2599V15.2499C9.66691 14.8357 9.33112 14.4999 8.91691 14.4999H8.90691ZM10.3269 8.75C10.3269 8.33579 10.6627 8 11.0769 8H11.0869C11.5011 8 11.8369 8.33579 11.8369 8.75V8.76C11.8369 9.17421 11.5011 9.51 11.0869 9.51H11.0769C10.6627 9.51 10.3269 9.17421 10.3269 8.76V8.75ZM11.0769 10.1666C10.6627 10.1666 10.3269 10.5024 10.3269 10.9166V10.9266C10.3269 11.3408 10.6627 11.6766 11.0769 11.6766H11.0869C11.5011 11.6766 11.8369 11.3408 11.8369 10.9266V10.9166C11.8369 10.5024 11.5011 10.1666 11.0869 10.1666H11.0769ZM10.3269 13.0833C10.3269 12.669 10.6627 12.3333 11.0769 12.3333H11.0869C11.5011 12.3333 11.8369 12.669 11.8369 13.0833V13.0933C11.8369 13.5075 11.5011 13.8433 11.0869 13.8433H11.0769C10.6627 13.8433 10.3269 13.5075 10.3269 13.0933V13.0833ZM11.0769 14.4999C10.6627 14.4999 10.3269 14.8357 10.3269 15.2499V15.2599C10.3269 15.6741 10.6627 16.0099 11.0769 16.0099H11.0869C11.5011 16.0099 11.8369 15.6741 11.8369 15.2599V15.2499C11.8369 14.8357 11.5011 14.4999 11.0869 14.4999H11.0769ZM12.5002 8.75C12.5002 8.33579 12.836 8 13.2502 8H13.2602C13.6744 8 14.0102 8.33579 14.0102 8.75V8.76C14.0102 9.17421 13.6744 9.51 13.2602 9.51H13.2502C12.836 9.51 12.5002 9.17421 12.5002 8.76V8.75ZM13.2502 10.1666C12.836 10.1666 12.5002 10.5024 12.5002 10.9166V10.9266C12.5002 11.3408 12.836 11.6766 13.2502 11.6766H13.2602C13.6744 11.6766 14.0102 11.3408 14.0102 10.9266V10.9166C14.0102 10.5024 13.6744 10.1666 13.2602 10.1666H13.2502ZM13.2502 12.3334C13.6644 12.3334 14.0002 12.6692 14.0002 13.0834V15.25C14.0002 15.6643 13.6644 16 13.2502 16C12.836 16 12.5002 15.6643 12.5002 15.25V13.0834C12.5002 12.6692 12.836 12.3334 13.2502 12.3334ZM6.75 4C6.33579 4 6 4.33579 6 4.75V5.25C6 5.66421 6.33579 6 6.75 6H13.25C13.6642 6 14 5.66421 14 5.25V4.75C14 4.33579 13.6642 4 13.25 4H6.75Z" fill="#0F172A"/>
</svg>

<svg xmlns="http://www.w3.org/2000/svg" viewBox="0 0 20 20" fill="currentColor" aria-hidden="true">
  <path fill-rule="evenodd" d="M10 1c-1.716 0-3.408.106-5.07.31C3.806 1.45 3 2.414 3 3.517V16.75A2.25 2.25 0 005.25 19h9.5A2.25 2.25 0 0017 16.75V3.517c0-1.103-.806-2.068-1.93-2.207A41.403 41.403 0 0010 1zM5.99 8.75A.75.75 0 016.74 8h.01a.75.75 0 01.75.75v.01a.75.75 0 01-.75.75h-.01a.75.75 0 01-.75-.75v-.01zm.75 1.417a.75.75 0 00-.75.75v.01c0 .414.336.75.75.75h.01a.75.75 0 00.75-.75v-.01a.75.75 0 00-.75-.75h-.01zm-.75 2.916a.75.75 0 01.75-.75h.01a.75.75 0 01.75.75v.01a.75.75 0 01-.75.75h-.01a.75.75 0 01-.75-.75v-.01zm.75 1.417a.75.75 0 00-.75.75v.01c0 .414.336.75.75.75h.01a.75.75 0 00.75-.75v-.01a.75.75 0 00-.75-.75h-.01zm1.417-5.75a.75.75 0 01.75-.75h.01a.75.75 0 01.75.75v.01a.75.75 0 01-.75.75h-.01a.75.75 0 01-.75-.75v-.01zm.75 1.417a.75.75 0 00-.75.75v.01c0 .414.336.75.75.75h.01a.75.75 0 00.75-.75v-.01a.75.75 0 00-.75-.75h-.01zm-.75 2.916a.75.75 0 01.75-.75h.01a.75.75 0 01.75.75v.01a.75.75 0 01-.75.75h-.01a.75.75 0 01-.75-.75v-.01zm.75 1.417a.75.75 0 00-.75.75v.01c0 .414.336.75.75.75h.01a.75.75 0 00.75-.75v-.01a.75.75 0 00-.75-.75h-.01zm1.42-5.75a.75.75 0 01.75-.75h.01a.75.75 0 01.75.75v.01a.75.75 0 01-.75.75h-.01a.75.75 0 01-.75-.75v-.01zm.75 1.417a.75.75 0 00-.75.75v.01c0 .414.336.75.75.75h.01a.75.75 0 00.75-.75v-.01a.75.75 0 00-.75-.75h-.01zm-.75 2.916a.75.75 0 01.75-.75h.01a.75.75 0 01.75.75v.01a.75.75 0 01-.75.75h-.01a.75.75 0 01-.75-.75v-.01zm.75 1.417a.75.75 0 00-.75.75v.01c0 .414.336.75.75.75h.01a.75.75 0 00.75-.75v-.01a.75.75 0 00-.75-.75h-.01zM12.5 8.75a.75.75 0 01.75-.75h.01a.75.75 0 01.75.75v.01a.75.75 0 01-.75.75h-.01a.75.75 0 01-.75-.75v-.01zm.75 1.417a.75.75 0 00-.75.75v.01c0 .414.336.75.75.75h.01a.75.75 0 00.75-.75v-.01a.75.75 0 00-.75-.75h-.01zm0 2.166a.75.75 0 01.75.75v2.167a.75.75 0 11-1.5 0v-2.167a.75.75 0 01.75-.75zM6.75 4a.75.75 0 00-.75.75v.5c0 .414.336.75.75.75h6.5a.75.75 0 00.75-.75v-.5a.75.75 0 00-.75-.75h-6.5z" clip-rule="evenodd"/>
</svg>
